X: 657
T: Planxty George Brabazon
R: march
%S: s:2 b:14(7+7)
C: O'Carolan
B: O'Neill's 1850 #657
Z: 1997 by John Chambers <jc@trillian.mit.edu>
N: Compacted via repeats and multiple endings [JC]
Q: "Moderate"
M: C
L: 1/8
K: G
"^A"[|] ge |\
d2G2 (cB)AG | d2G2 (cB)AG | e2A2 (AB)cd | e2A2 (AB)cd ||\
(ed)cB g2fe | (ed)cB (cB)AG | (BA)GE
(DE)GA | B2G2 G2 "^B"|: (ga) | b2(gb) a2(fa) | g2(eg) (ed)cB |\
[1 e2A2 (AB)cd | e2A2 A2 :|[2 (cB)AG (DE)GA | B2G2 G2 |]
